physalisproject/media/162t.svg

<?xml version="1.0" encoding="utf-8" standalone="no"?>
<!DOCTYPE svg PUBLIC "-//W3C//DTD SVG 1.1//EN"
  "http://www.w3.org/Graphics/SVG/1.1/DTD/svg11.dtd">
<svg xmlns:xlink="http://www.w3.org/1999/xlink" width="460.8pt" height="345.6pt" viewBox="80 50 380.8 295.6" xmlns="http://www.w3.org/2000/svg" version="1.1">
 <metadata>
  <rdf:RDF xmlns:dc="http://purl.org/dc/elements/1.1/" xmlns:cc="http://creativecommons.org/ns#" xmlns:rdf="http://www.w3.org/1999/02/22-rdf-syntax-ns#">
   <cc:Work>
    <dc:type rdf:resource="http://purl.org/dc/dcmitype/StillImage"/>
    <dc:date>2023-05-07T10:56:52.796288</dc:date>
    <dc:format>image/svg+xml</dc:format>
    <dc:creator>
     <cc:Agent>
      <dc:title>Matplotlib v3.7.1, https://matplotlib.org/</dc:title>
     </cc:Agent>
    </dc:creator>
   </cc:Work>
  </rdf:RDF>
 </metadata>
 <defs>
  <style type="text/css">*{stroke-linejoin: round; stroke-linecap: butt}</style>
 </defs>
 <g id="figure_1">
  <g id="patch_1">
   <path d="M 0 345.6 
L 460.8 345.6 
L 460.8 0 
L 0 0 
z
" style="fill: #ffffff"/>
  </g>
  <g id="axes_1">
   <g id="patch_2">
    <path d="M 115.553684 51.021474 
L 118.471579 62.693053 
L 115.564295 62.693053 
L 115.564295 272.781474 
L 115.543074 272.781474 
L 115.543074 62.693053 
L 112.635789 62.693053 
z
" style="stroke: #000000; stroke-width: 2.2; stroke-linejoin: miter"/>
   </g>
   <g id="patch_3">
    <path d="M 360.656842 272.781474 
L 348.985263 275.699368 
L 348.985263 272.792084 
L 115.553684 272.792084 
L 115.553684 272.770863 
L 348.985263 272.770863 
L 348.985263 269.863579 
z
" style="stroke: #000000; stroke-width: 2.2; stroke-linejoin: miter"/>
   </g>
   <g id="patch_4">
    <path d="M 216.412905 171.922253 
L 213.730663 179.968979 
L 211.055924 177.29424 
L 179.224345 209.125819 
L 179.209339 209.110813 
L 211.040918 177.279234 
L 208.366179 174.604495 
z
" clip-path="url(#p8e088a6501)" style="stroke: #000000; stroke-width: 2.86; stroke-linejoin: miter"/>
   </g>
   <g id="patch_5">
    <path d="M 282.298105 145.455158 
L 274.711579 149.248421 
L 274.711579 145.465768 
L 242.88 145.465768 
L 242.88 145.444547 
L 274.711579 145.444547 
L 274.711579 141.661895 
z
" clip-path="url(#p8e088a6501)" style="stroke: #000000; stroke-width: 2.86; stroke-linejoin: miter"/>
   </g>
   <g id="line2d_1">
    <path d="M 179.216842 209.118316 
L 242.88 145.455158 
" clip-path="url(#p8e088a6501)" style="fill: none; stroke: #000000; stroke-width: 2.86; stroke-linecap: square"/>
   </g>
   <g id="line2d_2">
    <path d="M 242.88 145.455158 
L 306.543158 145.455158 
" clip-path="url(#p8e088a6501)" style="fill: none; stroke: #000000; stroke-width: 2.86; stroke-linecap: square"/>
   </g>
   <g id="line2d_3">
    <path d="M 115.553684 272.781474 
L 179.216842 209.118316 
" clip-path="url(#p8e088a6501)" style="fill: none; stroke-dasharray: 6.512,2.816; stroke-dashoffset: 0; stroke: #000000; stroke-width: 1.76"/>
   </g>
   <g id="line2d_4">
    <defs>
     <path id="ma8260afbb3" d="M 0 3.75 
C 0.994512 3.75 1.948425 3.354876 2.65165 2.65165 
C 3.354876 1.948425 3.75 0.994512 3.75 0 
C 3.75 -0.994512 3.354876 -1.948425 2.65165 -2.65165 
C 1.948425 -3.354876 0.994512 -3.75 0 -3.75 
C -0.994512 -3.75 -1.948425 -3.354876 -2.65165 -2.65165 
C -3.354876 -1.948425 -3.75 -0.994512 -3.75 0 
C -3.75 0.994512 -3.354876 1.948425 -2.65165 2.65165 
C -1.948425 3.354876 -0.994512 3.75 0 3.75 
z
" style="stroke: #000000"/>
    </defs>
    <g clip-path="url(#p8e088a6501)">
     <use xlink:href="#ma8260afbb3" x="179.216842" y="209.118316" style="stroke: #000000"/>
    </g>
   </g>
   <g id="line2d_5">
    <g clip-path="url(#p8e088a6501)">
     <use xlink:href="#ma8260afbb3" x="242.88" y="145.455158" style="stroke: #000000"/>
    </g>
   </g>
   <g id="line2d_6">
    <g clip-path="url(#p8e088a6501)">
     <use xlink:href="#ma8260afbb3" x="306.543158" y="145.455158" style="stroke: #000000"/>
    </g>
   </g>
   <g id="line2d_7">
    <path style="fill: none; stroke: #000000; stroke-width: 2.2; stroke-linecap: square"/>
   </g>
   <g id="line2d_8">
    <path d="M 111.663158 272.781474 
L 119.444211 272.781474 
" style="fill: none; stroke: #000000; stroke-width: 2.2; stroke-linecap: square"/>
   </g>
   <g id="text_1">
    <!-- $T$ -->
    <g transform="translate(337.264385 310.477662) scale(0.41 -0.41)">
     <defs>
      <path id="CMMI12-54" d="M 2669 3910 
C 2707 4064 2720 4121 2816 4147 
C 2867 4160 3078 4160 3213 4160 
C 3853 4160 4154 4134 4154 3634 
C 4154 3537 4128 3295 4090 3057 
L 4083 2980 
C 4083 2954 4109 2916 4147 2916 
C 4211 2916 4211 2948 4230 3050 
L 4416 4184 
C 4429 4243 4429 4256 4429 4275 
C 4429 4345 4390 4345 4262 4345 
L 762 4345 
C 614 4345 608 4339 570 4224 
L 179 3070 
C 173 3056 154 2986 154 2980 
C 154 2948 179 2916 218 2916 
C 269 2916 282 2941 307 3024 
C 576 3801 710 4160 1562 4160 
L 1990 4160 
C 2144 4160 2208 4160 2208 4089 
C 2208 4069 2208 4057 2176 3941 
L 1318 499 
C 1254 249 1242 185 563 185 
C 403 185 358 185 358 64 
C 358 0 429 0 461 0 
C 621 0 787 0 947 0 
L 1946 0 
C 2106 0 2278 0 2438 0 
C 2509 0 2573 0 2573 121 
C 2573 185 2528 185 2362 185 
C 1786 185 1786 243 1786 339 
C 1786 346 1786 391 1811 494 
L 2669 3910 
z
" transform="scale(0.015625)"/>
     </defs>
     <use xlink:href="#CMMI12-54" transform="scale(0.996264)"/>
    </g>
   </g>
   <g id="text_2">
    <!-- $p$ -->
    <g transform="translate(86.14303 72.899681) scale(0.41 -0.41)">
     <defs>
      <path id="CMMI12-70" d="M 275 -789 
C 230 -980 205 -1031 -58 -1031 
C -134 -1031 -198 -1031 -198 -1152 
C -198 -1165 -192 -1216 -122 -1216 
C -38 -1216 51 -1216 134 -1216 
L 410 -1216 
C 544 -1216 870 -1216 1005 -1216 
C 1043 -1216 1120 -1216 1120 -1101 
C 1120 -1031 1075 -1031 966 -1031 
C 672 -1031 653 -987 653 -937 
C 653 -861 941 219 979 364 
C 1050 185 1222 -64 1555 -64 
C 2278 -64 3059 875 3059 1814 
C 3059 2401 2726 2816 2246 2816 
C 1837 2816 1491 2420 1421 2331 
C 1370 2650 1120 2816 864 2816 
C 678 2816 531 2727 410 2484 
C 294 2254 205 1865 205 1839 
C 205 1814 230 1782 275 1782 
C 326 1782 333 1788 371 1935 
C 467 2312 589 2689 845 2689 
C 992 2689 1043 2587 1043 2397 
C 1043 2245 1024 2181 998 2067 
L 275 -789 
z
M 1382 1993 
C 1427 2171 1606 2357 1709 2446 
C 1779 2510 1990 2689 2234 2689 
C 2515 2689 2643 2408 2643 2076 
C 2643 1769 2464 1047 2304 715 
C 2144 370 1850 64 1555 64 
C 1120 64 1050 613 1050 639 
C 1050 658 1062 709 1069 741 
L 1382 1993 
z
" transform="scale(0.015625)"/>
     </defs>
     <use xlink:href="#CMMI12-70" transform="scale(0.996264)"/>
    </g>
   </g>
   <g id="text_3">
    <!-- 1 -->
    <g transform="translate(146.735102 207.653366) scale(0.41 -0.41)">
     <defs>
      <path id="SFRM3583-31" d="M 608 3635 
C 698 3648 794 3648 883 3661 
C 1056 3693 1210 3751 1357 3841 
L 1357 416 
C 1357 173 1139 135 915 135 
C 819 135 723 135 640 135 
L 640 0 
L 2349 0 
L 2349 135 
C 2259 135 2163 135 2067 135 
C 1837 135 1632 173 1632 416 
L 1632 4140 
C 1632 4159 1626 4192 1606 4192 
C 1555 4192 1446 4056 1376 4004 
C 1184 3866 934 3782 710 3782 
L 672 3782 
C 634 3782 608 3776 608 3731 
L 608 3635 
z
" transform="scale(0.015625)"/>
     </defs>
     <use xlink:href="#SFRM3583-31" transform="scale(0.996264)"/>
    </g>
   </g>
   <g id="text_4">
    <!-- 2 -->
    <g transform="translate(222.069839 132.318629) scale(0.41 -0.41)">
     <defs>
      <path id="SFRM3583-32" d="M 390 3156 
C 442 3627 774 4083 1286 4083 
C 1843 4083 2234 3606 2234 3066 
L 2234 3014 
C 2195 2357 1754 1835 1344 1365 
L 352 213 
C 320 168 288 142 288 64 
L 288 0 
L 2438 0 
L 2573 907 
L 2490 907 
C 2438 610 2464 295 2195 295 
C 2029 295 1862 276 1696 276 
C 1600 276 1510 276 1421 276 
L 512 276 
C 838 637 1165 1012 1517 1353 
C 1990 1824 2573 2334 2573 3063 
C 2573 3798 1990 4224 1350 4224 
C 806 4224 429 3779 326 3303 
L 307 3207 
C 301 3148 288 3078 288 3014 
C 288 2891 333 2768 518 2768 
C 627 2788 698 2872 698 2968 
C 698 3071 621 3175 506 3175 
C 467 3175 429 3171 390 3156 
z
" transform="scale(0.015625)"/>
     </defs>
     <use xlink:href="#SFRM3583-32" transform="scale(0.996264)"/>
    </g>
   </g>
   <g id="text_5">
    <!-- 3 -->
    <g transform="translate(309.076155 132.318629) scale(0.41 -0.41)">
     <defs>
      <path id="SFRM3583-33" d="M 506 3501 
C 659 3866 1018 4090 1434 4090 
C 1830 4090 2125 3798 2125 3363 
C 2125 2961 1933 2493 1549 2338 
C 1466 2306 1382 2298 1293 2286 
L 1024 2266 
C 998 2260 960 2254 960 2221 
L 960 2208 
C 960 2189 986 2189 1005 2189 
L 1344 2189 
C 2010 2189 2266 1680 2266 1151 
L 2266 1063 
C 2234 644 2048 76 1434 76 
C 979 76 429 387 352 851 
C 384 839 416 832 448 832 
C 576 832 666 922 666 1043 
C 666 1159 576 1255 454 1255 
C 333 1255 237 1178 237 1030 
C 237 379 864 -64 1453 -64 
C 2106 -64 2624 499 2624 1139 
C 2624 1728 2138 2227 1504 2227 
C 2010 2377 2464 2728 2464 3372 
C 2464 3906 1926 4224 1466 4224 
C 979 4224 397 3904 397 3354 
C 397 3213 467 3117 595 3117 
C 723 3117 800 3213 800 3322 
C 800 3437 704 3520 602 3520 
C 570 3520 538 3514 506 3501 
z
" transform="scale(0.015625)"/>
     </defs>
     <use xlink:href="#SFRM3583-33" transform="scale(0.996264)"/>
    </g>
   </g>
   <g id="text_6">
    <!-- 0 -->
    <g transform="translate(85.604942 282.988102) scale(0.41 -0.41)">
     <defs>
      <path id="SFRM3583-30" d="M 1357 4221 
C 454 4117 301 2985 301 2051 
C 301 1485 333 809 653 352 
C 832 101 1114 -79 1421 -79 
C 1933 -79 2259 326 2406 783 
C 2541 1201 2560 1639 2560 2070 
C 2560 2650 2534 3371 2182 3828 
C 2003 4060 1728 4227 1434 4227 
C 1408 4227 1382 4221 1357 4221 
z
M 627 1704 
L 627 2297 
C 627 3056 666 4145 1434 4145 
C 1965 4145 2150 3533 2202 3082 
C 2227 2793 2234 2509 2234 2219 
L 2234 1762 
C 2234 1279 2208 770 2003 390 
C 1888 184 1677 4 1434 4 
L 1395 4 
C 659 94 698 1054 627 1704 
z
" transform="scale(0.015625)"/>
     </defs>
     <use xlink:href="#SFRM3583-30" transform="scale(0.996264)"/>
    </g>
   </g>
  </g>
 </g>
 <defs>
  <clipPath id="p8e088a6501">
   <rect x="99.213474" y="41.472" width="273.893053" height="266.112"/>
  </clipPath>
 </defs>
</svg>

<?xml version="1.0" encoding="UTF-8" standalone="no"?>
<svg
   width="328.21915pt"
   height="304.45206pt"
   viewBox="80 50 271.23666 260.40517"
   version="1.1"
   id="svg17"
   sodipodi:docname="162t.svg"
   inkscape:version="1.3 (0e150ed, 2023-07-21)"
   xmlns:inkscape="http://www.inkscape.org/namespaces/inkscape"
   xmlns:sodipodi="http://sodipodi.sourceforge.net/DTD/sodipodi-0.dtd"
   xmlns:xlink="http://www.w3.org/1999/xlink"
   xmlns="http://www.w3.org/2000/svg"
   xmlns:svg="http://www.w3.org/2000/svg"
   xmlns:rdf="http://www.w3.org/1999/02/22-rdf-syntax-ns#"
   xmlns:cc="http://creativecommons.org/ns#"
   xmlns:dc="http://purl.org/dc/elements/1.1/">
  <sodipodi:namedview
     id="namedview17"
     pagecolor="#ffffff"
     bordercolor="#000000"
     borderopacity="0.25"
     inkscape:showpageshadow="2"
     inkscape:pageopacity="0.0"
     inkscape:pagecheckerboard="0"
     inkscape:deskcolor="#d1d1d1"
     inkscape:document-units="pt"
     inkscape:zoom="0.73116837"
     inkscape:cx="49.920102"
     inkscape:cy="295.41759"
     inkscape:window-width="1440"
     inkscape:window-height="847"
     inkscape:window-x="0"
     inkscape:window-y="25"
     inkscape:window-maximized="0"
     inkscape:current-layer="svg17" />
  <metadata
     id="metadata1">
    <rdf:RDF>
      <cc:Work>
        <dc:type
           rdf:resource="http://purl.org/dc/dcmitype/StillImage" />
        <dc:date>2023-05-07T10:56:52.796288</dc:date>
        <dc:format>image/svg+xml</dc:format>
        <dc:creator>
          <cc:Agent>
            <dc:title>Matplotlib v3.7.1, https://matplotlib.org/</dc:title>
          </cc:Agent>
        </dc:creator>
      </cc:Work>
    </rdf:RDF>
  </metadata>
  <defs
     id="defs1">
    <style
       type="text/css"
       id="style1">*{stroke-linejoin: round; stroke-linecap: butt}</style>
    <defs
       id="defs8">
      <path
         id="ma8260afbb3"
         d="M 0,3.75 C 0.994512,3.75 1.948425,3.354876 2.65165,2.65165 3.354876,1.948425 3.75,0.994512 3.75,0 3.75,-0.994512 3.354876,-1.948425 2.65165,-2.65165 1.948425,-3.354876 0.994512,-3.75 0,-3.75 c -0.994512,0 -1.948425,0.395124 -2.65165,1.09835 C -3.354876,-1.948425 -3.75,-0.994512 -3.75,0 c 0,0.994512 0.395124,1.948425 1.09835,2.65165 C -1.948425,3.354876 -0.994512,3.75 0,3.75 Z"
         style="stroke:#000000" />
    </defs>
  </defs>
  <path
     d="m 105.92719,50.26679 2.9179,11.671579 h -2.90728 V 272.02679 h -0.0212 V 61.938369 h -2.90728 z"
     style="stroke:#000000;stroke-width:2.2;stroke-linejoin:miter"
     id="path2" />
  <path
     d="m 351.03035,272.02679 -11.67158,2.9179 V 272.0374 H 105.92719 v -0.0212 h 233.43158 v -2.90728 z"
     style="stroke:#000000;stroke-width:2.2;stroke-linejoin:miter"
     id="path3" />
  <path
     d="m 216.4129,171.92225 -2.68224,8.04673 -2.67474,-2.67474 -31.83158,31.83158 -0.015,-0.015 31.83158,-31.83158 -2.67474,-2.67474 z"
     clip-path="url(#p8e088a6501)"
     style="stroke:#000000;stroke-width:2.86;stroke-linejoin:miter"
     id="path4"
     transform="translate(-9.6264843,-0.7546847)" />
  <path
     d="m 282.29811,145.45516 -7.58653,3.79326 v -3.78265 H 242.88 v -0.0212 h 31.83158 v -3.78266 z"
     clip-path="url(#p8e088a6501)"
     style="stroke:#000000;stroke-width:2.86;stroke-linejoin:miter"
     id="path5"
     transform="translate(-9.6264843,-0.7546847)" />
  <path
     d="M 179.21684,209.11832 242.88,145.45516"
     clip-path="url(#p8e088a6501)"
     style="fill:none;stroke:#000000;stroke-width:2.86;stroke-linecap:square"
     id="path6"
     transform="translate(-9.6264843,-0.7546847)" />
  <path
     d="m 242.88,145.45516 h 63.66316"
     clip-path="url(#p8e088a6501)"
     style="fill:none;stroke:#000000;stroke-width:2.86;stroke-linecap:square"
     id="path7"
     transform="translate(-9.6264843,-0.7546847)" />
  <path
     d="m 115.55368,272.78147 63.66316,-63.66315"
     clip-path="url(#p8e088a6501)"
     style="fill:none;stroke:#000000;stroke-width:1.76;stroke-dasharray:6.512, 2.816;stroke-dashoffset:0"
     id="path8"
     transform="translate(-9.6264843,-0.7546847)" />
  <g
     clip-path="url(#p8e088a6501)"
     id="g8"
     transform="translate(-9.6264843,-0.7546847)">
    <use
       xlink:href="#ma8260afbb3"
       x="179.21684"
       y="209.11832"
       style="stroke:#000000"
       id="use8" />
  </g>
  <g
     clip-path="url(#p8e088a6501)"
     id="g9"
     transform="translate(-9.6264843,-0.7546847)">
    <use
       xlink:href="#ma8260afbb3"
       x="242.88"
       y="145.45515"
       style="stroke:#000000"
       id="use9" />
  </g>
  <g
     clip-path="url(#p8e088a6501)"
     id="g10"
     transform="translate(-9.6264843,-0.7546847)">
    <use
       xlink:href="#ma8260afbb3"
       x="306.54315"
       y="145.45515"
       style="stroke:#000000"
       id="use10" />
  </g>
  <path
     style="fill:none;stroke:#000000;stroke-width:2.2;stroke-linecap:square"
     id="path10"
     d="" />
  <g
     transform="matrix(0.37388731,0,0,-0.37446911,330.20905,310.40517)"
     id="g11">
    <defs
       id="defs11">
      <path
         id="CMMI12-54"
         d="m 2669,3910 c 38,154 51,211 147,237 51,13 262,13 397,13 640,0 941,-26 941,-526 0,-97 -26,-339 -64,-577 l -7,-77 c 0,-26 26,-64 64,-64 64,0 64,32 83,134 l 186,1134 c 13,59 13,72 13,91 0,70 -39,70 -167,70 H 762 c -148,0 -154,-6 -192,-121 L 179,3070 c -6,-14 -25,-84 -25,-90 0,-32 25,-64 64,-64 51,0 64,25 89,108 269,777 403,1136 1255,1136 h 428 c 154,0 218,0 218,-71 0,-20 0,-32 -32,-148 L 1318,499 C 1254,249 1242,185 563,185 403,185 358,185 358,64 358,0 429,0 461,0 621,0 787,0 947,0 h 999 c 160,0 332,0 492,0 71,0 135,0 135,121 0,64 -45,64 -211,64 -576,0 -576,58 -576,154 0,7 0,52 25,155 z"
         transform="scale(0.015625)" />
    </defs>
    <use
       xlink:href="#CMMI12-54"
       transform="scale(0.996264)"
       id="use11" />
  </g>
  <g
     transform="matrix(0.41,0,0,-0.41,76.516546,72.144997)"
     id="g12">
    <defs
       id="defs12">
      <path
         id="CMMI12-70"
         d="m 275,-789 c -45,-191 -70,-242 -333,-242 -76,0 -140,0 -140,-121 0,-13 6,-64 76,-64 84,0 173,0 256,0 h 276 c 134,0 460,0 595,0 38,0 115,0 115,115 0,70 -45,70 -154,70 -294,0 -313,44 -313,94 0,76 288,1156 326,1301 71,-179 243,-428 576,-428 723,0 1504,939 1504,1878 0,587 -333,1002 -813,1002 -409,0 -755,-396 -825,-485 -51,319 -301,485 -557,485 -186,0 -333,-89 -454,-332 -116,-230 -205,-619 -205,-645 0,-25 25,-57 70,-57 51,0 58,6 96,153 96,377 218,754 474,754 147,0 198,-102 198,-292 0,-152 -19,-216 -45,-330 z m 1107,2782 c 45,178 224,364 327,453 70,64 281,243 525,243 281,0 409,-281 409,-613 C 2643,1769 2464,1047 2304,715 2144,370 1850,64 1555,64 c -435,0 -505,549 -505,575 0,19 12,70 19,102 z"
         transform="scale(0.015625)" />
    </defs>
    <use
       xlink:href="#CMMI12-70"
       transform="scale(0.996264)"
       id="use12" />
  </g>
  <g
     transform="matrix(0.41,0,0,-0.41,137.10861,206.89869)"
     id="g13">
    <defs
       id="defs13">
      <path
         id="SFRM3583-31"
         d="m 608,3635 c 90,13 186,13 275,26 173,32 327,90 474,180 V 416 c 0,-243 -218,-281 -442,-281 -96,0 -192,0 -275,0 V 0 h 1709 v 135 c -90,0 -186,0 -282,0 -230,0 -435,38 -435,281 v 3724 c 0,19 -6,52 -26,52 -51,0 -160,-136 -230,-188 -192,-138 -442,-222 -666,-222 h -38 c -38,0 -64,-6 -64,-51 z"
         transform="scale(0.015625)" />
    </defs>
    <use
       xlink:href="#SFRM3583-31"
       transform="scale(0.996264)"
       id="use13" />
  </g>
  <g
     transform="matrix(0.41,0,0,-0.41,212.44335,131.56395)"
     id="g14">
    <defs
       id="defs14">
      <path
         id="SFRM3583-32"
         d="m 390,3156 c 52,471 384,927 896,927 557,0 948,-477 948,-1017 v -52 C 2195,2357 1754,1835 1344,1365 L 352,213 C 320,168 288,142 288,64 V 0 h 2150 l 135,907 h -83 c -52,-297 -26,-612 -295,-612 -166,0 -333,-19 -499,-19 -96,0 -186,0 -275,0 H 512 c 326,361 653,736 1005,1077 473,471 1056,981 1056,1710 0,735 -583,1161 -1223,1161 -544,0 -921,-445 -1024,-921 l -19,-96 c -6,-59 -19,-129 -19,-193 0,-123 45,-246 230,-246 109,20 180,104 180,200 0,103 -77,207 -192,207 -39,0 -77,-4 -116,-19 z"
         transform="scale(0.015625)" />
    </defs>
    <use
       xlink:href="#SFRM3583-32"
       transform="scale(0.996264)"
       id="use14" />
  </g>
  <g
     transform="matrix(0.41,0,0,-0.41,299.44967,131.56395)"
     id="g15">
    <defs
       id="defs15">
      <path
         id="SFRM3583-33"
         d="m 506,3501 c 153,365 512,589 928,589 396,0 691,-292 691,-727 0,-402 -192,-870 -576,-1025 -83,-32 -167,-40 -256,-52 l -269,-20 c -26,-6 -64,-12 -64,-45 v -13 c 0,-19 26,-19 45,-19 h 339 c 666,0 922,-509 922,-1038 v -88 C 2234,644 2048,76 1434,76 979,76 429,387 352,851 c 32,-12 64,-19 96,-19 128,0 218,90 218,211 0,116 -90,212 -212,212 -121,0 -217,-77 -217,-225 0,-651 627,-1094 1216,-1094 653,0 1171,563 1171,1203 0,589 -486,1088 -1120,1088 506,150 960,501 960,1145 0,534 -538,852 -998,852 -487,0 -1069,-320 -1069,-870 0,-141 70,-237 198,-237 128,0 205,96 205,205 0,115 -96,198 -198,198 -32,0 -64,-6 -96,-19 z"
         transform="scale(0.015625)" />
    </defs>
    <use
       xlink:href="#SFRM3583-33"
       transform="scale(0.996264)"
       id="use15" />
  </g>
  <g
     transform="matrix(0.41,0,0,-0.41,78.952546,298.29349)"
     id="g16">
    <defs
       id="defs16">
      <path
         id="SFRM3583-30"
         d="M 1357,4221 C 454,4117 301,2985 301,2051 301,1485 333,809 653,352 832,101 1114,-79 1421,-79 c 512,0 838,405 985,862 135,418 154,856 154,1287 0,580 -26,1301 -378,1758 -179,232 -454,399 -748,399 -26,0 -52,-6 -77,-6 z M 627,1704 v 593 c 0,759 39,1848 807,1848 531,0 716,-612 768,-1063 25,-289 32,-573 32,-863 V 1762 C 2234,1279 2208,770 2003,390 1888,184 1677,4 1434,4 h -39 C 659,94 698,1054 627,1704 Z"
         transform="scale(0.015625)" />
    </defs>
    <use
       xlink:href="#SFRM3583-30"
       transform="scale(0.996264)"
       id="use16" />
  </g>
  <defs
     id="defs17">
    <clipPath
       id="p8e088a6501">
      <rect
         x="99.21347"
         y="41.472"
         width="273.89307"
         height="266.112"
         id="rect16" />
    </clipPath>
  </defs>
</svg>
